Adwaita++-Light/panel/16/museeks-tray.svg

<svg height="16" width="16" xmlns="http://www.w3.org/2000/svg">
  <g fill="#444">
    <path d="m12 1-4.0234375 4.7773438 1.6816406 1.4707031.8613279.7519531-4.6894529 4.101562 2.1699219 1.898438 3-3v4h4v-14z" opacity=".3"/>
    <path d="m9 8-4 3.5-4 3.5v-14l4 3.5z"/>
  </g>
</svg>

<svg xmlns="http://www.w3.org/2000/svg" width="16" height="16" version="1.1">
 <defs>
  <style id="current-color-scheme" type="text/css">
   .ColorScheme-Text { color:#444444; } .ColorScheme-Highlight { color:#4285f4; }
  </style>
 </defs>
 <path style="fill:currentColor;opacity:0.3" class="ColorScheme-Text" d="M 12,1 7.9765625,5.7773438 9.6582031,7.2480469 10.519531,8 5.8300781,12.101562 8,14 11,11 v 4 h 4 V 1 Z"/>
 <path d="M 9,8 5,11.5 1,15 V 1 l 4,3.5 z" style="fill:currentColor" class="ColorScheme-Text"/>
</svg>
